tools/download-figma-icons/icons/solid/craftsman.svg

<svg width="24" height="24" viewBox="0 0 24 24" fill="none" xmlns="http://www.w3.org/2000/svg">
<path fill-rule="evenodd" clip-rule="evenodd" d="M16.1055 15.2025C16.1648 15.4553 16.089 15.7215 15.9053 15.9053L8.22078 23.6512C7.99953 23.8748 7.69878 24 7.38378 24H2.25003C2.01828 24 1.79928 23.8927 1.65753 23.7098C1.51503 23.5268 1.46628 23.289 1.52328 23.0648L2.74578 18.2752C2.96103 17.187 3.76953 16.2488 4.90053 15.8048L9.20328 14.3895L9.44103 13.677C8.02353 12.8857 6.95403 11.3812 6.95403 9.85725V9.5355C6.45153 9.3135 6.00003 8.84625 6.00003 8.0355V7.58025V7.125C6.00003 6.2175 6.43653 5.8005 6.89478 5.61225C6.81303 4.8525 6.75453 3.72675 7.51953 2.8665C8.14653 2.16375 9.14328 1.82175 10.5683 1.82175C13.7783 1.82175 14.6348 0.471 14.6835 0.38925C14.7945 0.1875 14.991 0.04725 15.219 0.0105C15.2603 0.003 15.3 0 15.3413 0C15.5325 0 15.7178 0.0735 15.8588 0.207C16.8878 1.18875 18.3548 3.495 17.3723 5.814C17.7293 6.075 18 6.4965 18 7.125V8.0355C18 8.84625 17.5485 9.3135 17.046 9.5355V9.85725C17.046 11.3812 15.9765 12.8857 14.559 13.677L14.7968 14.3917L15.612 14.664C15.8588 14.7458 16.0455 14.9497 16.1055 15.2025ZM21.045 15.7943L22.3425 14.4976C22.4475 14.7751 22.5 15.0676 22.5 15.3751C22.5 16.8226 21.3225 18.0001 19.875 18.0001C19.5683 18.0001 19.2766 17.9371 19.0021 17.8388L13.1708 23.6701C12.951 23.8899 12.663 24.0001 12.375 24.0001C12.087 24.0001 11.799 23.8899 11.5793 23.6701C11.1398 23.2313 11.1398 22.5188 11.5793 22.0793L17.4113 16.2481C17.313 15.9736 17.25 15.6818 17.25 15.3751C17.25 13.9276 18.4275 12.7501 19.875 12.7501C20.1825 12.7501 20.475 12.8026 20.7525 12.9076L19.4551 14.2051C19.0126 14.6476 19.0126 15.3526 19.4551 15.7943C19.6726 16.0126 19.965 16.1251 20.25 16.1251C20.535 16.1251 20.8268 16.0126 21.045 15.7943Z" fill="black"/>
</svg>

<svg xmlns="http://www.w3.org/2000/svg" width="24" height="24" fill="none" viewBox="0 0 24 24"><path fill="currentColor" fill-rule="evenodd" d="M16.106 15.203a.75.75 0 0 1-.2.702L8.22 23.651a1.18 1.18 0 0 1-.837.349H2.25a.75.75 0 0 1-.727-.935l1.223-4.79c.215-1.088 1.024-2.026 2.155-2.47l4.302-1.415.238-.713c-1.417-.791-2.487-2.296-2.487-3.82v-.321C6.452 9.313 6 8.846 6 8.036v-.911c0-.907.437-1.324.895-1.513-.082-.76-.14-1.885.625-2.746.627-.702 1.623-1.044 3.048-1.044 3.21 0 4.067-1.351 4.116-1.433A.75.75 0 0 1 15.34 0c.192 0 .377.074.518.207 1.029.982 2.496 3.288 1.513 5.607.357.261.628.683.628 1.311v.91c0 .811-.451 1.278-.954 1.5v.322c0 1.524-1.07 3.029-2.487 3.82l.238.715.815.272a.75.75 0 0 1 .493.539m4.939.591 1.297-1.296q.159.416.158.877A2.63 2.63 0 0 1 19.875 18a2.6 2.6 0 0 1-.873-.161l-5.831 5.831a1.12 1.12 0 0 1-1.592 0 1.124 1.124 0 0 1 0-1.59l5.832-5.832a2.6 2.6 0 0 1-.161-.873 2.63 2.63 0 0 1 2.625-2.625q.462 0 .878.158l-1.298 1.297a1.117 1.117 0 0 0 0 1.59c.218.218.51.33.795.33s.577-.112.795-.33" clip-rule="evenodd"/></svg>
